X:1
T:Ivyhatch, LM
T:Ivyhatch, LM
T:Bertram Luard-Selby, 1904
T:Public Domain Courtesy of the Cyber Hymnal™
C:Bertram Luard-Selby, 1904
Z:Public Domain
Z:Courtesy of the Cyber Hymnal™
%%score ( 1 2 ) ( 3 4 )
L:1/8
Q:1/4=110
M:4/4
K:Ab
V:1 treble 
V:2 treble 
V:3 bass 
V:4 bass 
V:1
 cd | [Be]2 [Be]2 [Ae]2 A2 | B2 cd [Ac]2 [Ec]2 | [Fc]2 BA GA B2 | A2 GF E2 EF | %5
 _G2 [CA]2 [DF]2 F=G | A2 [=DB]2 [EG]2 c2 | [Fd]2 FG [FA][GB] cd | [Ae]2 [GB]2 [Ac]2 |] %9
V:2
 A2 | x6 AG | FA G2 x4 | x2 F2 E2 E=D | CE =D2 x B,2 x | ED x3 C2 x | FE x3 A_G x | x2 F2 x A2 x | %8
 x6 |] %9
V:3
 [A,D]2 | DC B,D C2 C2 | [D,B,]2 [E,E]2 [A,,E]2 A,2 | A,2 [=D,B,]2 [E,B,]2 [G,,E,]2 | %4
 E,C B,A, [E,G,]2 [E,_G,][D,F,] | E,2 [A,,A,]2 [D,A,]2 A,2 | F,2 [B,,B,]2 [E,B,]2 [A,,E]2 | %7
 [D,D]2 [DF]2 [CE][B,D] [A,C][F,A,] | B,C DE [A,,E]2 |] %9
V:4
 x2 | A,2 G,2 A,G, F,E, | x6 A,G, | F,E, x6 | A,,2 B,,2 x4 | C,B,, x3 F,E, x | =D,C, x6 | x8 | %8
 E,2 E,2 x2 |] %9

